icons/glyphs/glyph-export.svg

<?xml version="1.0" encoding="UTF-8" standalone="no"?><svg height="22" viewBox="0 0 5.8208332 5.8208335" width="22" xmlns="http://www.w3.org/2000/svg"><sodipodi:namedview/><metadata><rdf:RDF><cc:Work><dc:format>image/svg+xml</dc:format><dc:type/><dc:title/><cc:license/><dc:creator><cc:Agent><dc:title>PixelPimps &amp; CodePoets</dc:title></cc:Agent></dc:creator></cc:Work><cc:License><cc:permits/><cc:permits/><cc:requires/><cc:requires/><cc:permits/></cc:License></rdf:RDF></metadata><path d="m .62373461.00000012v5.82083308h1.12706299v-1.9843749c0-.4522177.3720213-.824239.8242391-.824239h.532784v-.7544759l1.6825846 1.1038084-1.6825846 1.1032919v-.8206216h-.4376994c-.1717074 0-.3009545.1311217-.3023071.3028238v1.8737873h2.8292845v-4.3656248l-1.4552083-1.45520828z" fill="#eee" stroke-width=".207887"/></svg>

<?xml version="1.0" encoding="UTF-8" standalone="no"?>
<!-- Created with Inkscape (http://www.inkscape.org/) -->

<svg
   xmlns:dc="http://purl.org/dc/elements/1.1/"
   xmlns:cc="http://creativecommons.org/ns#"
   xmlns:rdf="http://www.w3.org/1999/02/22-rdf-syntax-ns#"
   xmlns:svg="http://www.w3.org/2000/svg"
   xmlns="http://www.w3.org/2000/svg"
   xmlns:sodipodi="http://sodipodi.sourceforge.net/DTD/sodipodi-0.dtd"
   xmlns:inkscape="http://www.inkscape.org/namespaces/inkscape"
   width="22"
   height="22"
   viewBox="0 0 5.8208332 5.8208335"
   version="1.1"
   id="svg8"
   inkscape:version="0.92+devel 15740 custom"
   sodipodi:docname="glyph-export.svg">
  <defs
     id="defs2">
    <linearGradient
       gradientTransform="translate(471.31814,349.93102)"
       x2="0"
       gradientUnits="userSpaceOnUse"
       y2="365.35999"
       y1="392.35999"
       id="a">
      <stop
         id="stop2"
         stop-opacity="0"
         stop-color="#ffffff" />
      <stop
         id="stop4"
         stop-opacity=".2"
         stop-color="#ffffff"
         offset="1" />
    </linearGradient>
    <linearGradient
       gradientTransform="translate(309.57,152.44)"
       x2="0"
       gradientUnits="userSpaceOnUse"
       y2="365.35999"
       y1="392.35999"
       id="linearGradient4314">
      <stop
         id="stop4310"
         stop-opacity="0"
         stop-color="#ffffff" />
      <stop
         id="stop4312"
         stop-opacity=".2"
         stop-color="#ffffff"
         offset="1" />
    </linearGradient>
    <linearGradient
       gradientTransform="translate(471.31814,349.93102)"
       x2="0"
       gradientUnits="userSpaceOnUse"
       y2="365.35999"
       y1="392.35999"
       id="a-6">
      <stop
         id="stop2-2"
         stop-opacity="0"
         stop-color="#ffffff" />
      <stop
         id="stop4-9"
         stop-opacity=".2"
         stop-color="#ffffff"
         offset="1" />
    </linearGradient>
    <linearGradient
       gradientTransform="translate(309.57,152.44)"
       x2="0"
       gradientUnits="userSpaceOnUse"
       y2="365.35999"
       y1="392.35999"
       id="linearGradient4314-1">
      <stop
         id="stop4310-2"
         stop-opacity="0"
         stop-color="#ffffff" />
      <stop
         id="stop4312-7"
         stop-opacity=".2"
         stop-color="#ffffff"
         offset="1" />
    </linearGradient>
    <linearGradient
       id="a-0"
       y1="392.35999"
       y2="365.35999"
       gradientUnits="userSpaceOnUse"
       x2="0"
       gradientTransform="translate(471.31814,349.93102)">
      <stop
         stop-color="#ffffff"
         stop-opacity="0"
         id="stop2-6" />
      <stop
         offset="1"
         stop-color="#ffffff"
         stop-opacity=".2"
         id="stop4-2" />
    </linearGradient>
    <linearGradient
       id="linearGradient4314-6"
       y1="392.35999"
       y2="365.35999"
       gradientUnits="userSpaceOnUse"
       x2="0"
       gradientTransform="translate(309.57,152.44)">
      <stop
         stop-color="#ffffff"
         stop-opacity="0"
         id="stop4310-1" />
      <stop
         offset="1"
         stop-color="#ffffff"
         stop-opacity=".2"
         id="stop4312-8" />
    </linearGradient>
  </defs>
  <sodipodi:namedview
     id="base"
     pagecolor="#002466"
     bordercolor="#ffffff"
     borderopacity="0.32156863"
     inkscape:pageopacity="1"
     inkscape:pageshadow="2"
     inkscape:zoom="19.090909"
     inkscape:cx="11"
     inkscape:cy="11"
     inkscape:document-units="px"
     inkscape:current-layer="svg8"
     inkscape:document-rotation="0"
     showgrid="false"
     units="px"
     inkscape:pagecheckerboard="false"
     borderlayer="true"
     inkscape:showpageshadow="false"
     inkscape:window-width="1920"
     inkscape:window-height="1051"
     inkscape:window-x="0"
     inkscape:window-y="0"
     inkscape:window-maximized="1" />
  <metadata
     id="metadata5">
    <rdf:RDF>
      <cc:Work
         rdf:about="">
        <dc:format>image/svg+xml</dc:format>
        <dc:type
           rdf:resource="http://purl.org/dc/dcmitype/StillImage" />
        <dc:title></dc:title>
        <cc:license
           rdf:resource="http://creativecommons.org/licenses/by/4.0/" />
        <dc:creator>
          <cc:Agent>
            <dc:title>PixelPimps &amp; CodePoets</dc:title>
          </cc:Agent>
        </dc:creator>
      </cc:Work>
      <cc:License
         rdf:about="http://creativecommons.org/licenses/by/4.0/">
        <cc:permits
           rdf:resource="http://creativecommons.org/ns#Reproduction" />
        <cc:permits
           rdf:resource="http://creativecommons.org/ns#Distribution" />
        <cc:requires
           rdf:resource="http://creativecommons.org/ns#Notice" />
        <cc:requires
           rdf:resource="http://creativecommons.org/ns#Attribution" />
        <cc:permits
           rdf:resource="http://creativecommons.org/ns#DerivativeWorks" />
      </cc:License>
    </rdf:RDF>
  </metadata>
  <path
     style="color:#000000;color-interpolation:sRGB;color-interpolation-filters:linearRGB;fill:#eeeeee;stroke-width:0.20788699;color-rendering:auto;image-rendering:auto;shape-rendering:auto;text-rendering:auto"
     d="M 0.62373461,1.2e-7 V 5.8208332 H 1.7507976 V 3.8364583 c 0,-0.4522177 0.3720213,-0.824239 0.8242391,-0.824239 h 0.532784 V 2.2577434 L 4.7904053,3.3615518 3.1078207,4.4648437 V 3.6442221 H 2.6701213 c -0.1717074,0 -0.3009545,0.1311217 -0.3023071,0.3028238 V 5.8208332 H 5.1970987 V 1.4552084 L 3.7418904,1.2e-7 Z"
     id="use15"
     inkscape:connector-curvature="0"
     inkscape:label="#" />
</svg>
